images_elementary_svg/cmd/lc_verticaltext.svg

<svg height="24" width="24" xmlns="http://www.w3.org/2000/svg" xmlns:xlink="http://www.w3.org/1999/xlink"><radialGradient id="a" cx="14.984537" cy="-4.569169" gradientTransform="matrix(-2.3475 .00000005 -.00000005 -2.1003991 47.1762 -6.597079)" gradientUnits="userSpaceOnUse" r="8.0937"><stop offset="0" stop-color="#737373"/><stop offset=".26238" stop-color="#636363"/><stop offset=".70495" stop-color="#4b4b4b"/><stop offset="1" stop-color="#3f3f3f"/></radialGradient><radialGradient id="b" cx="12" cy="-14.267" gradientTransform="matrix(1.9091 .00000009 -.00000012 2.7273 -10.909 62.909)" gradientUnits="userSpaceOnUse" r="11"><stop offset="0" stop-color="#1f1f1f"/><stop offset="1" stop-color="#5c5c5c"/></radialGradient><g transform="translate(0 2)"><path d="m7.2938 13.3052v-6.7171l-2.9-1.1564v-3.0924l15.2 6.3345v2.8777l-15.2 6.1092v-3.2337zm2.3-5.919v5.0456l6.8763-2.2512z" style="stroke:#000;stroke-width:.866;stroke-linecap:round;stroke-linejoin:round;stroke-opacity:.43137;fill:url(#a)"/><path d="m2.9316-.50977-.048828-.48828-.29102.029297-.048828.005859-.048828.013672-.23047.072266.29492.95508.17773-.054688.22656-.023438h2.0371v-1h-2.0684zm3.0684.50977h2v-1h-2zm3 0h2v-1h-2zm3 0h2v-1h-2zm3 0h2v-1h-2zm2.9998 0h2.0004v-1h-2.0004zm3.0002 0h.0127l.25098.023438.16406.050781.16211.087891.13672.11133.11133.13672.08789.16211.041017.42773h.95508l-.05664-.77344-.01367-.046875-.02344-.044922-.13281-.24219-.02344-.042969-.0293-.037109-.17578-.21289-.0293-.037109-.03711-.029297-.21289-.17578-.03711-.029297-.04297-.023438-.24219-.13281-.04492-.023438-.04687-.013672-.26758-.083984-.04883-.013672-.04883-.005859-.31543-.029297-.023432-.0019533h-.06934zm-19.828.13477-.023438.044922-.013672.046875-.083984.26758-.013672.048828-.0058594.048828-.029297.29102-.0019531.023438v1.0938h1v-1.0371l.023438-.22656.050781-.16602.044922-.083984-.87891-.47461zm20.828 3.8652h1v-2h-1zm-21 1h1v-2h-1zm21 2h1v-2h-1zm-21 1h1v-2h-1zm21 2h1v-2h-1zm-21 1h1v-2h-1zm21 2h1v-2h-1zm-21 1h1v-2h-1zm21 2h1v-2h-1zm-21 1h1v-2h-1zm21 1.549h1v-1.549h-1zm-21 .51936v.02539l.00195.02344.029297.29102.00586.04883.013672.04883.083984.26758.013672.04687.023438.04492.13281.24219.023438.04297.029297.03711.17578.21289.029297.03711.037109.0293.021484.01758.40234-.49023.28125-.23047-.14258-.17384-.087891-.16211-.050781-.16406-.023438-.22656v-.81836h-1zm20.945.32422-.0078-.002-.01172.03711-.08789.16211-.11133.13672-.13672.11133-.16211.08789-.16406.05078-.22657.023485h-.20312v1h.25977l.02344-.002.29102-.0293.04883-.0059.04883-.01367.26758-.08398.04687-.01367.04492-.02344.24219-.13281.04297-.02344.03711-.0293.21289-.17578.03711-.0293.0293-.03711.17578-.21289.0293-.03711.02344-.04297.13281-.24219.02344-.04492.01367-.04687.02734-.08789-.92383-.28516-.02148-.01172zm-19.16 1.5957.097656.0098.023438.002h2.0938v-1h-2.0371l-.078125-.0078zm3.2148.011719h2v-1h-2zm3 0h2v-1h-2zm3 0h2v-1h-2zm3 0h2v-1h-2zm3 0h2v-1h-2z" fill="url(#b)" opacity=".867"/><path d="m4.3945312 4.3398438v.5l15.1992188 6.3339842v-.5zm11.3945308 8.0625002-6.195312 2.029297v.5l6.876953-2.251953zm-8.4960932 2.902344-2.8984376 1.123046v.5l2.8984376-1.123046z" fill="#e7e1f6" opacity=".2" transform="translate(0 -2)"/></g><path id="c" d="m20.501.5h2.9986v3.0003h-2.9986z" fill="#ffc27d" stroke="#a62100" stroke-opacity=".43015" stroke-width=".99292"/><use id="d" height="100%" transform="translate(.003537 20.003)" width="100%" xlink:href="#c"/><use height="100%" transform="translate(-20.009 -20.007)" width="100%" xlink:href="#d"/><use height="100%" transform="translate(-20.005 20.003)" width="100%" xlink:href="#c"/></svg>

<?xml version="1.0" encoding="UTF-8" standalone="no"?>
<svg
   xmlns:dc="http://purl.org/dc/elements/1.1/"
   xmlns:cc="http://creativecommons.org/ns#"
   xmlns:rdf="http://www.w3.org/1999/02/22-rdf-syntax-ns#"
   xmlns:svg="http://www.w3.org/2000/svg"
   xmlns="http://www.w3.org/2000/svg"
   xmlns:xlink="http://www.w3.org/1999/xlink"
   xmlns:sodipodi="http://sodipodi.sourceforge.net/DTD/sodipodi-0.dtd"
   xmlns:inkscape="http://www.inkscape.org/namespaces/inkscape"
   height="24"
   width="24"
   version="1.1"
   id="svg28"
   sodipodi:docname="lc_verticaltext.svg"
   inkscape:version="0.92.4 (unknown)"
   inkscape:export-filename="/home/rizmut/Dokumen/Rizmut/Github/libreoffice-style-elementary/images_elementary/cmd/lc_verticaltext.png"
   inkscape:export-xdpi="96"
   inkscape:export-ydpi="96">
  <metadata
     id="metadata34">
    <rdf:RDF>
      <cc:Work
         rdf:about="">
        <dc:format>image/svg+xml</dc:format>
        <dc:type
           rdf:resource="http://purl.org/dc/dcmitype/StillImage" />
        <dc:title />
      </cc:Work>
    </rdf:RDF>
  </metadata>
  <defs
     id="defs32" />
  <sodipodi:namedview
     pagecolor="#ffffff"
     bordercolor="#666666"
     borderopacity="1"
     objecttolerance="10"
     gridtolerance="10"
     guidetolerance="10"
     inkscape:pageopacity="0"
     inkscape:pageshadow="2"
     inkscape:window-width="1366"
     inkscape:window-height="714"
     id="namedview30"
     showgrid="true"
     inkscape:zoom="6.9532167"
     inkscape:cx="-19.047016"
     inkscape:cy="15.72701"
     inkscape:window-x="0"
     inkscape:window-y="28"
     inkscape:window-maximized="1"
     inkscape:current-layer="g20">
    <inkscape:grid
       type="xygrid"
       id="grid841" />
  </sodipodi:namedview>
  <radialGradient
     id="a"
     cx="14.984537"
     cy="-4.5691686"
     gradientTransform="matrix(-2.3475,5.304481e-8,-5.4972893e-8,-2.1003991,47.1762,-6.5970793)"
     gradientUnits="userSpaceOnUse"
     r="8.0937"
     fx="14.984537"
     fy="-4.5691686">
    <stop
       offset="0"
       stop-color="#737373"
       id="stop2" />
    <stop
       offset=".26238"
       stop-color="#636363"
       id="stop4" />
    <stop
       offset=".70495"
       stop-color="#4b4b4b"
       id="stop6" />
    <stop
       offset="1"
       stop-color="#3f3f3f"
       id="stop8" />
  </radialGradient>
  <radialGradient
     id="b"
     cx="12"
     cy="-14.267"
     gradientTransform="matrix(1.9091 .00000009 -.00000012 2.7273 -10.909 62.909)"
     gradientUnits="userSpaceOnUse"
     r="11">
    <stop
       offset="0"
       stop-color="#1f1f1f"
       id="stop11" />
    <stop
       offset="1"
       stop-color="#5c5c5c"
       id="stop13" />
  </radialGradient>
  <g
     transform="translate(0 2)"
     id="g20">
    <path
       d="M 7.2938,13.3052 V 6.5881 l -2.9,-1.1564 V 2.3393 l 15.2,6.3345 v 2.8777 l -15.2,6.1092 V 14.427 Z m 2.3,-5.919 v 5.0456 l 6.8763,-2.2512 z"
       style="fill:url(#a);stroke:#000000;stroke-width:0.866;stroke-linecap:round;stroke-linejoin:round;stroke-opacity:0.43136998"
       id="path16"
       inkscape:connector-curvature="0" />
    <path
       d="m2.9316-.50977-.048828-.48828-.29102.029297-.048828.005859-.048828.013672-.23047.072266.29492.95508.17773-.054688.22656-.023438h2.0371v-1h-2.0684zm3.0684.50977h2v-1h-2zm3 0h2v-1h-2zm3 0h2v-1h-2zm3 0h2v-1h-2zm2.9998 0h2.0004v-1h-2.0004zm3.0002 0h.0127l.25098.023438.16406.050781.16211.087891.13672.11133.11133.13672.08789.16211.041017.42773h.95508l-.05664-.77344-.01367-.046875-.02344-.044922-.13281-.24219-.02344-.042969-.0293-.037109-.17578-.21289-.0293-.037109-.03711-.029297-.21289-.17578-.03711-.029297-.04297-.023438-.24219-.13281-.04492-.023438-.04687-.013672-.26758-.083984-.04883-.013672-.04883-.005859-.31543-.029297-.023432-.0019533h-.06934zm-19.828.13477-.023438.044922-.013672.046875-.083984.26758-.013672.048828-.0058594.048828-.029297.29102-.0019531.023438v1.0938h1v-1.0371l.023438-.22656.050781-.16602.044922-.083984-.87891-.47461zm20.828 3.8652h1v-2h-1zm-21 1h1v-2h-1zm21 2h1v-2h-1zm-21 1h1v-2h-1zm21 2h1v-2h-1zm-21 1h1v-2h-1zm21 2h1v-2h-1zm-21 1h1v-2h-1zm21 2h1v-2h-1zm-21 1h1v-2h-1zm21 1.549h1v-1.549h-1zm-21 .51936v.02539l.00195.02344.029297.29102.00586.04883.013672.04883.083984.26758.013672.04687.023438.04492.13281.24219.023438.04297.029297.03711.17578.21289.029297.03711.037109.0293.021484.01758.40234-.49023.28125-.23047-.14258-.17384-.087891-.16211-.050781-.16406-.023438-.22656v-.81836h-1zm20.945.32422-.0078-.002-.01172.03711-.08789.16211-.11133.13672-.13672.11133-.16211.08789-.16406.05078-.22657.023485h-.20312v1h.25977l.02344-.002.29102-.0293.04883-.0059.04883-.01367.26758-.08398.04687-.01367.04492-.02344.24219-.13281.04297-.02344.03711-.0293.21289-.17578.03711-.0293.0293-.03711.17578-.21289.0293-.03711.02344-.04297.13281-.24219.02344-.04492.01367-.04687.02734-.08789-.92383-.28516-.02148-.01172zm-19.16 1.5957.097656.0098.023438.002h2.0938v-1h-2.0371l-.078125-.0078zm3.2148.011719h2v-1h-2zm3 0h2v-1h-2zm3 0h2v-1h-2zm3 0h2v-1h-2zm3 0h2v-1h-2z"
       fill="url(#b)"
       opacity=".867"
       id="path18" />
    <path
       style="fill:#e7e1f6;stroke:none;stroke-width:0.866;stroke-linecap:round;stroke-linejoin:round;stroke-opacity:0.43136998;fill-opacity:1;opacity:0.2"
       d="M 4.3945312 4.3398438 L 4.3945312 4.8398438 L 19.59375 11.173828 L 19.59375 10.673828 L 4.3945312 4.3398438 z M 15.789062 12.402344 L 9.59375 14.431641 L 9.59375 14.931641 L 16.470703 12.679688 L 15.789062 12.402344 z M 7.2929688 15.304688 L 4.3945312 16.427734 L 4.3945312 16.927734 L 7.2929688 15.804688 L 7.2929688 15.304688 z "
       transform="translate(0,-2)"
       id="path1494" />
  </g>
  <path
     id="c"
     d="m20.501.5h2.9986v3.0003h-2.9986z"
     fill="#ffc27d"
     stroke="#a62100"
     stroke-opacity=".43015"
     stroke-width=".99292" />
  <use
     id="d"
     height="100%"
     transform="translate(.003537 20.003)"
     width="100%"
     xlink:href="#c" />
  <use
     height="100%"
     transform="translate(-20.009 -20.007)"
     width="100%"
     xlink:href="#d"
     id="use24" />
  <use
     height="100%"
     transform="translate(-20.005 20.003)"
     width="100%"
     xlink:href="#c"
     id="use26" />
</svg>
